X:460
T: Toss the Feathers (Em Version)
M: 4/4
L: 1/8
R: reel
K: Edor
EB ~B2 dB ~B2|EBBA FEFA|BE ~E2 BABd|egfe dBAF|
EB ~B2 dB ~B2|EBBA FEFA|BE ~E2 BABd|egfe dBAd ||
Beed e2 de|fede fee2|febe febe|fede fee2|
Beed e2 de|fede faa2|b3 f a3 f|(3efg fe dBAF ||
